X: 28037
T: Moving Swiftly On
R: jig
M: 6/8
K: Bminor
dBB FBB|cAA EAA|BGG GBd|cde fec|
dBB FBB|cAA EAA|EFA Bfe|cAB2:|
fBB dBB|cAA eAA|BGG GBd|cde feg|
fBB dBB|cAA eAA|EFA Bfe|cAB2:|

